Sweet-Rainbow/icons/latte-dock.svg

<?xml version="1.0" encoding="UTF-8" standalone="no"?>
<!-- Generator: Gravit.io -->

<svg
   xmlns:dc="http://purl.org/dc/elements/1.1/"
   xmlns:cc="http://creativecommons.org/ns#"
   xmlns:rdf="http://www.w3.org/1999/02/22-rdf-syntax-ns#"
   xmlns:svg="http://www.w3.org/2000/svg"
   xmlns="http://www.w3.org/2000/svg"
   xmlns:sodipodi="http://sodipodi.sourceforge.net/DTD/sodipodi-0.dtd"
   xmlns:inkscape="http://www.inkscape.org/namespaces/inkscape"
   style="isolation:isolate"
   viewBox="0 0 36 36"
   width="48"
   height="48"
   version="1.1"
   id="svg21"
   sodipodi:docname="latte-dock.svg"
   inkscape:version="0.92.4 (5da689c313, 2019-01-14)">
  <metadata
     id="metadata27">
    <rdf:RDF>
      <cc:Work
         rdf:about="">
        <dc:format>image/svg+xml</dc:format>
        <dc:type
           rdf:resource="http://purl.org/dc/dcmitype/StillImage" />
        <dc:title></dc:title>
      </cc:Work>
    </rdf:RDF>
  </metadata>
  <defs
     id="defs25" />
  <sodipodi:namedview
     pagecolor="#ffffff"
     bordercolor="#666666"
     borderopacity="1"
     objecttolerance="10"
     gridtolerance="10"
     guidetolerance="10"
     inkscape:pageopacity="0"
     inkscape:pageshadow="2"
     inkscape:window-width="640"
     inkscape:window-height="480"
     id="namedview23"
     showgrid="false"
     inkscape:zoom="29.365243"
     inkscape:cx="25.325443"
     inkscape:cy="32"
     inkscape:current-layer="svg21"
     units="px" />
  <linearGradient
     id="_lgradient_19"
     x1="0"
     y1="0.5"
     x2="1"
     y2="0.5"
     gradientTransform="matrix(22.324,0,0,28.836,12.838,9.582)"
     gradientUnits="userSpaceOnUse">
    <stop
       offset="0%"
       stop-opacity="1"
       style="stop-color:rgb(255,224,49)"
       id="stop2" />
    <stop
       offset="98.69565217391305%"
       stop-opacity="1"
       style="stop-color:rgb(252,82,82)"
       id="stop4" />
  </linearGradient>
  <linearGradient
     id="_lgradient_20"
     x1="13.515439"
     y1="21.287655"
     x2="40.600433"
     y2="21.287655"
     gradientTransform="scale(0.88698563,1.127414)"
     gradientUnits="userSpaceOnUse">
    <stop
       offset="0%"
       stop-opacity="1"
       style="stop-color:rgb(255,224,49)"
       id="stop7" />
    <stop
       offset="98.69565217391305%"
       stop-opacity="1"
       style="stop-color:rgb(252,82,82)"
       id="stop9" />
  </linearGradient>
  <linearGradient
     id="_lgradient_21"
     x1="0"
     y1="0.5"
     x2="1"
     y2="0.5"
     gradientTransform="matrix(47,0,0,47,0.5,0.5)"
     gradientUnits="userSpaceOnUse">
    <stop
       offset="0%"
       stop-opacity="1"
       style="stop-color:rgb(255,224,49)"
       id="stop14" />
    <stop
       offset="98.69565217391305%"
       stop-opacity="1"
       style="stop-color:rgb(252,82,82)"
       id="stop16" />
  </linearGradient>
  <g
     id="g839"
     transform="matrix(0.76595745,0,0,0.76595745,-0.3829788,-0.3829788)">
    <path
       id="path12"
       stroke-miterlimit="4"
       d="m 33.007,9.582 c -1.04,0 -2.04,0.275 -2.997,0.825 -0.937,0.529 -1.822,1.301 -2.654,2.316 -0.812,0.995 -1.551,2.222 -2.217,3.681 -0.666,1.438 -1.238,3.066 -1.717,4.885 -0.333,1.291 -0.666,2.38 -0.999,3.269 -0.333,0.888 -0.676,1.628 -1.03,2.22 -0.77,-0.296 -1.531,-0.818 -2.28,-1.008 -0.729,-0.212 -1.477,-0.317 -2.247,-0.317 -0.604,0 -1.156,0.095 -1.655,0.286 -0.479,0.19 -0.895,0.422 -1.249,0.697 -0.353,0.275 -0.634,0.571 -0.843,0.889 -0.187,0.317 -0.281,0.891 -0.281,1.166 0,0.444 0.209,0.816 0.625,1.112 0.416,0.296 1.04,0.443 1.873,0.443 2.206,0 4.069,-0.582 5.588,-1.746 0.958,0.423 1.937,0.826 2.936,1.207 1.02,0.359 2.144,0.539 3.372,0.539 1.395,0 2.508,-0.296 3.341,-0.888 0.833,-0.613 1.312,-1.398 1.811,-2.54 0.021,-0.128 -0.009,-0.213 -0.092,-0.254 -0.063,-0.064 -0.137,-0.064 -0.22,0 -0.354,0.719 -0.614,1.176 -1.156,1.557 -0.541,0.38 -1.332,0.57 -2.372,0.57 -1.249,0 -2.395,-0.137 -3.436,-0.412 -1.02,-0.296 -1.997,-0.624 -2.934,-0.983 1.291,-1.544 2.3,-3.734 3.029,-6.568 0.437,-1.777 0.862,-3.257 1.279,-4.442 0.416,-1.184 0.864,-2.125 1.342,-2.823 0.479,-0.719 1.001,-1.124 1.563,-1.399 0.583,-0.296 1.269,-0.443 2.06,-0.443 0.583,0 1.06,0.106 1.435,0.318 0.396,0.19 0.688,0.444 0.876,0.761 0.187,0.317 0.29,0.573 0.31,0.954 0.021,0.381 -0.029,1.132 -0.154,1.513 -0.021,0.107 0.009,0.18 0.093,0.222 0.104,0.043 0.198,0.032 0.281,-0.031 0.208,-0.36 0.405,-1.187 0.593,-1.737 0.187,-0.571 0.281,-1.069 0.281,-1.492 0,-0.655 -0.198,-1.205 -0.594,-1.649 C 34.173,9.814 33.653,9.582 33.007,9.582 Z M 15.492,26.5 c 0.895,0 1.738,0.126 2.529,0.38 0.791,0.253 1.572,0.829 2.342,1.168 -0.479,0.465 -1.021,0.782 -1.624,0.952 -0.583,0.147 -1.249,0.221 -1.999,0.221 -0.853,0 -1.519,-0.137 -1.998,-0.412 -0.458,-0.275 -0.687,-0.903 -0.687,-1.326 0,-0.656 0.48,-0.983 1.437,-0.983 z m 2.927,6.337 c -1.028,0 -1.86,0.833 -1.86,1.86 0,1.028 0.832,1.86 1.86,1.86 1.027,0 1.86,-0.832 1.86,-1.86 0,-1.027 -0.833,-1.86 -1.86,-1.86 z m 11.162,0 c -1.027,0 -1.86,0.833 -1.86,1.86 0,1.028 0.833,1.86 1.86,1.86 1.028,0 1.86,-0.832 1.86,-1.86 0,-1.027 -0.832,-1.86 -1.86,-1.86 z M 24,34.697 c -1.027,0 -1.86,0.833 -1.86,1.86 0,1.028 0.833,1.861 1.86,1.861 1.027,0 1.86,-0.833 1.86,-1.861 0,-1.027 -0.833,-1.86 -1.86,-1.86 z"
       inkscape:connector-curvature="0"
       style="vector-effect:non-scaling-stroke;fill:url(#_lgradient_19);stroke:url(#_lgradient_20);stroke-width:1.70000005;stroke-linecap:butt;stroke-linejoin:miter;stroke-miterlimit:4" />
    <path
       id="path19"
       d="m 8.59,12.05 v 0 c -0.673,0.872 -1.928,1.031 -2.8,0.355 v 0 C 4.918,11.729 4.757,10.472 5.43,9.6 v 0 C 9.88,3.87 16.74,0.5 24,0.5 c 0,0 0,0 0,0 v 0 c 6.23,0 12.21,2.48 16.62,6.88 4.4,4.41 6.88,10.39 6.88,16.62 0,2.48 -0.39,4.95 -1.16,7.31 v 0 c -0.342,1.049 -1.471,1.622 -2.52,1.28 v 0 c -1.049,-0.342 -1.622,-1.471 -1.28,-2.52 v 0 C 43.18,28.11 43.5,26.06 43.5,24 43.5,18.83 41.44,13.87 37.79,10.21 34.13,6.56 29.17,4.5 24,4.5 17.98,4.5 12.29,7.29 8.59,12.05 Z M 24,4.5 c 0,0 0,0 0,0 v 0 0 c 0,0 0,0 0,0 z m 13.06,33.98 v 0 c 0.817,-0.74 2.08,-0.675 2.82,0.145 v 0 c 0.74,0.82 0.677,2.085 -0.14,2.825 v 0 C 35.42,45.34 29.81,47.5 24,47.5 17.77,47.5 11.79,45.02 7.38,40.62 2.98,36.21 0.5,30.23 0.5,24 c 0,-0.67 0.03,-1.33 0.08,-2 v 0 c 0.094,-1.098 1.064,-1.914 2.165,-1.82 v 0 c 1.101,0.094 1.919,1.062 1.825,2.16 v 0 C 4.52,22.89 4.5,23.45 4.5,24 c 0,5.17 2.06,10.13 5.71,13.79 3.66,3.65 8.62,5.71 13.79,5.71 4.82,0 9.48,-1.79 13.06,-5.02 z"
       inkscape:connector-curvature="0"
       style="fill:url(#_lgradient_21);fill-rule:evenodd" />
  </g>
</svg>

<?xml version="1.0" encoding="UTF-8" standalone="no"?><!-- Generator: Gravit.io --><svg xmlns="http://www.w3.org/2000/svg" xmlns:xlink="http://www.w3.org/1999/xlink" style="isolation:isolate" viewBox="0 0 48 48" width="48pt" height="48pt"><linearGradient id="_lgradient_19" x1="0" y1="0.5" x2="1" y2="0.5" gradientTransform="matrix(22.324,0,0,28.836,12.838,9.582)" gradientUnits="userSpaceOnUse"><stop offset="0%" stop-opacity="1" style="stop-color:rgb(255,224,49)"/><stop offset="98.69565217391305%" stop-opacity="1" style="stop-color:rgb(252,82,82)"/></linearGradient><linearGradient id="_lgradient_20" x1="0" y1="0.5" x2="1" y2="0.5"><stop offset="0%" stop-opacity="1" style="stop-color:rgb(255,224,49)"/><stop offset="98.69565217391305%" stop-opacity="1" style="stop-color:rgb(252,82,82)"/></linearGradient><path d=" M 33.007 9.582 C 31.967 9.582 30.967 9.857 30.01 10.407 C 29.073 10.936 28.188 11.708 27.356 12.723 C 26.544 13.718 25.805 14.945 25.139 16.404 C 24.473 17.842 23.901 19.47 23.422 21.289 C 23.089 22.58 22.756 23.669 22.423 24.558 C 22.09 25.446 21.747 26.186 21.393 26.778 C 20.623 26.482 19.862 25.96 19.113 25.77 C 18.384 25.558 17.636 25.453 16.866 25.453 C 16.262 25.453 15.71 25.548 15.211 25.739 C 14.732 25.929 14.316 26.161 13.962 26.436 C 13.609 26.711 13.328 27.007 13.119 27.325 C 12.932 27.642 12.838 28.216 12.838 28.491 C 12.838 28.935 13.047 29.307 13.463 29.603 C 13.879 29.899 14.503 30.046 15.336 30.046 C 17.542 30.046 19.405 29.464 20.924 28.3 C 21.882 28.723 22.861 29.126 23.86 29.507 C 24.88 29.866 26.004 30.046 27.232 30.046 C 28.627 30.046 29.74 29.75 30.573 29.158 C 31.406 28.545 31.885 27.76 32.384 26.618 C 32.405 26.49 32.375 26.405 32.292 26.364 C 32.229 26.3 32.155 26.3 32.072 26.364 C 31.718 27.083 31.458 27.54 30.916 27.921 C 30.375 28.301 29.584 28.491 28.544 28.491 C 27.295 28.491 26.149 28.354 25.108 28.079 C 24.088 27.783 23.111 27.455 22.174 27.096 C 23.465 25.552 24.474 23.362 25.203 20.528 C 25.64 18.751 26.065 17.271 26.482 16.086 C 26.898 14.902 27.346 13.961 27.824 13.263 C 28.303 12.544 28.825 12.139 29.387 11.864 C 29.97 11.568 30.656 11.421 31.447 11.421 C 32.03 11.421 32.507 11.527 32.882 11.739 C 33.278 11.929 33.57 12.183 33.758 12.5 C 33.945 12.817 34.048 13.073 34.068 13.454 C 34.089 13.835 34.039 14.586 33.914 14.967 C 33.893 15.074 33.923 15.147 34.007 15.189 C 34.111 15.232 34.205 15.221 34.288 15.158 C 34.496 14.798 34.693 13.971 34.881 13.421 C 35.068 12.85 35.162 12.352 35.162 11.929 C 35.162 11.274 34.964 10.724 34.568 10.28 C 34.173 9.814 33.653 9.582 33.007 9.582 Z  M 15.492 26.5 C 16.387 26.5 17.23 26.626 18.021 26.88 C 18.812 27.133 19.593 27.709 20.363 28.048 C 19.884 28.513 19.342 28.83 18.739 29 C 18.156 29.147 17.49 29.221 16.74 29.221 C 15.887 29.221 15.221 29.084 14.742 28.809 C 14.284 28.534 14.055 27.906 14.055 27.483 C 14.055 26.827 14.535 26.5 15.492 26.5 Z  M 18.419 32.837 C 17.391 32.837 16.559 33.67 16.559 34.697 C 16.559 35.725 17.391 36.557 18.419 36.557 C 19.446 36.557 20.279 35.725 20.279 34.697 C 20.279 33.67 19.446 32.837 18.419 32.837 Z  M 29.581 32.837 C 28.554 32.837 27.721 33.67 27.721 34.697 C 27.721 35.725 28.554 36.557 29.581 36.557 C 30.609 36.557 31.441 35.725 31.441 34.697 C 31.441 33.67 30.609 32.837 29.581 32.837 Z  M 24 34.697 C 22.973 34.697 22.14 35.53 22.14 36.557 C 22.14 37.585 22.973 38.418 24 38.418 C 25.027 38.418 25.86 37.585 25.86 36.557 C 25.86 35.53 25.027 34.697 24 34.697 Z " fill="url(#_lgradient_19)" vector-effect="non-scaling-stroke" stroke-width="1.7" stroke="url(#_lgradient_20)" stroke-linejoin="miter" stroke-linecap="butt" stroke-miterlimit="4"/><linearGradient id="_lgradient_21" x1="0" y1="0.5" x2="1" y2="0.5" gradientTransform="matrix(47,0,0,47,0.5,0.5)" gradientUnits="userSpaceOnUse"><stop offset="0%" stop-opacity="1" style="stop-color:rgb(255,224,49)"/><stop offset="98.69565217391305%" stop-opacity="1" style="stop-color:rgb(252,82,82)"/></linearGradient><path d=" M 8.59 12.05 L 8.59 12.05 C 7.917 12.922 6.662 13.081 5.79 12.405 L 5.79 12.405 C 4.918 11.729 4.757 10.472 5.43 9.6 L 5.43 9.6 C 9.88 3.87 16.74 0.5 24 0.5 C 24 0.5 24 0.5 24 0.5 L 24 0.5 C 30.23 0.5 36.21 2.98 40.62 7.38 C 45.02 11.79 47.5 17.77 47.5 24 C 47.5 26.48 47.11 28.95 46.34 31.31 L 46.34 31.31 C 45.998 32.359 44.869 32.932 43.82 32.59 L 43.82 32.59 C 42.771 32.248 42.198 31.119 42.54 30.07 L 42.54 30.07 C 43.18 28.11 43.5 26.06 43.5 24 C 43.5 18.83 41.44 13.87 37.79 10.21 C 34.13 6.56 29.17 4.5 24 4.5 C 17.98 4.5 12.29 7.29 8.59 12.05 L 8.59 12.05 Z  M 24 4.5 C 24 4.5 24 4.5 24 4.5 L 24 4.5 L 24 4.5 C 24 4.5 24 4.5 24 4.5 L 24 4.5 Z  M 37.06 38.48 L 37.06 38.48 C 37.877 37.74 39.14 37.805 39.88 38.625 L 39.88 38.625 C 40.62 39.445 40.557 40.71 39.74 41.45 L 39.74 41.45 C 35.42 45.34 29.81 47.5 24 47.5 C 17.77 47.5 11.79 45.02 7.38 40.62 C 2.98 36.21 0.5 30.23 0.5 24 C 0.5 23.33 0.53 22.67 0.58 22 L 0.58 22 C 0.674 20.902 1.644 20.086 2.745 20.18 L 2.745 20.18 C 3.846 20.274 4.664 21.242 4.57 22.34 L 4.57 22.34 C 4.52 22.89 4.5 23.45 4.5 24 C 4.5 29.17 6.56 34.13 10.21 37.79 C 13.87 41.44 18.83 43.5 24 43.5 C 28.82 43.5 33.48 41.71 37.06 38.48 Z " fill-rule="evenodd" fill="url(#_lgradient_21)"/></svg>
